X:5088
T:The High Moss
M:4/4
R:Reel
L:1/8
Q:180
C:Aidan Crossey
K:Ador
|:B2dc Bdgd|B2dB AcBA|Bddc Bdgd|AGFG ABcA:||
|:BGcA dBec|BGcB AGFA|BGcA dBec|AGFG ABcA:||
